assets/luts/cinematic_film.cube
# Cinematic film emulation LUT (generated by scripts/generate_luts.py)
LUT_3D_SIZE 9
0.014792 0.025052 0.045572
0.117848 0.023408 0.043041
0.236254 0.021519 0.040134
0.373713 0.019326 0.036758
0.535228 0.016749 0.032792
0.696742 0.014172 0.028826
0.834202 0.011979 0.025450
0.952607 0.010091 0.022542
1.000000 0.008446 0.020012
0.010752 0.123778 0.037058
0.113809 0.122134 0.034528
0.232214 0.120245 0.031620
0.369674 0.118052 0.028245
0.531188 0.115476 0.024278
0.692703 0.112899 0.020312
0.830162 0.110706 0.016937
0.948568 0.108817 0.014029
1.000000 0.107173 0.011498
0.006111 0.237209 0.027277
0.109168 0.235565 0.024746
0.227573 0.233676 0.021839
0.365032 0.231483 0.018463
0.526547 0.228906 0.014497
0.688062 0.226330 0.010531
0.825521 0.224137 0.007155
0.943926 0.222248 0.004248
1.000000 0.220603 0.001717
0.000723 0.368893 0.015922
0.103780 0.367249 0.013391
0.222185 0.365360 0.010483
0.359644 0.363167 0.007108
0.521159 0.360590 0.003141
0.682674 0.358013 0.000000
0.820133 0.355820 0.000000
0.938538 0.353931 0.000000
1.000000 0.352287 0.000000
0.000000 0.523621 0.002579
0.097449 0.521977 0.000048
0.215854 0.520088 0.000000
0.353313 0.517895 0.000000
0.514828 0.515318 0.000000
0.675589 0.512816 0.000000
0.808432 0.511493 0.000000
0.919958 0.511136 0.001837
1.000000 0.511434 0.008009
0.000000 0.678349 0.000000
0.091756 0.676479 0.000000
0.214985 0.672753 0.000000
0.354674 0.669335 0.000000
0.514179 0.666564 0.009434
0.668684 0.665141 0.020410
0.796239 0.664990 0.030843
0.903209 0.665642 0.040635
0.994057 0.666729 0.049696
0.010410 0.800295 0.005831
0.116478 0.797210 0.012356
0.235831 0.794343 0.020550
0.371018 0.791921 0.030997
0.525235 0.790322 0.044556
0.674452 0.790070 0.059502
0.797506 0.790916 0.073314
0.900599 0.792426 0.086016
0.987897 0.794085 0.097435
0.043196 0.900176 0.034177
0.146357 0.897735 0.042884
0.262370 0.895607 0.053585
0.393681 0.894044 0.066943
0.543343 0.893454 0.083922
0.688004 0.894211 0.102287
0.807181 0.895915 0.119010
0.906935 0.898165 0.134220
0.991099 0.900242 0.147593
0.078096 0.984392 0.065612
0.178695 0.982479 0.076186
0.291759 0.980953 0.089027
0.419640 0.980082 0.104862
0.565263 0.980296 0.124743
0.705876 0.981847 0.146002
0.821600 0.984220 0.165179
0.918374 0.987041 0.182497
0.999687 0.989355 0.197449
0.014384 0.024493 0.148970
0.117441 0.022849 0.146439
0.235846 0.020960 0.143531
0.373305 0.018767 0.140156
0.534820 0.016191 0.136190
0.696335 0.013614 0.132224
0.833794 0.011421 0.128848
0.952199 0.009532 0.125940
1.000000 0.007888 0.123410
0.010344 0.123220 0.140456
0.113401 0.121576 0.137926
0.231807 0.119687 0.135018
0.369266 0.117494 0.131643
0.530780 0.114917 0.127676
0.692295 0.112341 0.123710
0.829754 0.110148 0.120335
0.948160 0.108259 0.117427
1.000000 0.106615 0.114896
0.005703 0.236651 0.130675
0.108760 0.235006 0.128144
0.227165 0.233118 0.125237
0.364625 0.230925 0.121861
0.526139 0.228348 0.117895
0.687654 0.225771 0.113929
0.825113 0.223578 0.110553
0.943519 0.221689 0.107646
1.000000 0.220045 0.105115
0.000315 0.368334 0.119320
0.103372 0.366690 0.116789
0.221777 0.364801 0.113881
0.359237 0.362608 0.110506
0.520751 0.360032 0.106539
0.682266 0.357455 0.102573
0.819725 0.355262 0.099198
0.938131 0.353373 0.096290
1.000000 0.351729 0.093759
0.000000 0.523063 0.105977
0.097041 0.521419 0.103446
0.215446 0.519530 0.100539
0.352906 0.517337 0.097163
0.514420 0.514760 0.093197
0.674699 0.512387 0.093781
0.807202 0.511313 0.098787
0.918434 0.511169 0.103905
1.000000 0.511651 0.108983
0.000000 0.677791 0.092634
0.093253 0.675302 0.092650
0.216188 0.671790 0.096678
0.355536 0.668620 0.102290
0.514641 0.666142 0.110168
0.668746 0.665010 0.119431
0.795960 0.665107 0.128408
0.902637 0.665973 0.136945
0.993220 0.667237 0.144904
0.012972 0.799186 0.107178
0.118785 0.796287 0.112612
0.237844 0.793634 0.119551
0.372691 0.791461 0.128541
0.526508 0.790153 0.140389
0.675324 0.790193 0.153623
0.798038 0.791287 0.165978
0.900838 0.793011 0.177426
0.987863 0.794839 0.187735
0.046456 0.899285 0.131304
0.149362 0.897031 0.138919
0.265082 0.895116 0.148365
0.396052 0.893802 0.160266
0.545313 0.893504 0.175534
0.689574 0.894552 0.192188
0.808411 0.896505 0.207453
0.907871 0.898969 0.221408
0.991757 0.901208 0.233667
0.081954 0.983681 0.159054
0.182296 0.981953 0.168535
0.295065 0.980639 0.180119
0.422604 0.980015 0.194496
0.567824 0.980519 0.212664
0.708035 0.982359 0.232209
0.823416 0.984979 0.249928
0.919895 0.988012 0.265990
1.000000 0.990483 0.279819
0.013916 0.023852 0.267768
0.116972 0.022208 0.265237
0.235378 0.020319 0.262329
0.372837 0.018126 0.258954
0.534351 0.015549 0.254987
0.695866 0.012973 0.251021
0.833325 0.010780 0.247646
0.951731 0.008891 0.244738
1.000000 0.007247 0.242207
0.009876 0.122579 0.259254
0.112933 0.120934 0.256723
0.231338 0.119045 0.253816
0.368797 0.116853 0.250440
0.530312 0.114276 0.246474
0.691827 0.111699 0.242508
0.829286 0.109506 0.239132
0.947691 0.107617 0.236225
1.000000 0.105973 0.233694
0.005235 0.236009 0.249473
0.108291 0.234365 0.246942
0.226697 0.232476 0.244034
0.364156 0.230283 0.240659
0.525671 0.227706 0.236693
0.687185 0.225130 0.232726
0.824645 0.222937 0.229351
0.943050 0.221048 0.226443
1.000000 0.219404 0.223912
0.000000 0.367693 0.238117
0.102903 0.366049 0.235586
0.221309 0.364160 0.232679
0.358768 0.361967 0.229303
0.520283 0.359390 0.225337
0.681797 0.356813 0.221371
0.819257 0.354620 0.217995
0.937662 0.352731 0.215088
1.000000 0.351087 0.212557
0.000000 0.522421 0.224775
0.096572 0.520777 0.222244
0.214978 0.518888 0.219336
0.352437 0.516695 0.215961
0.513952 0.514118 0.211994
0.673752 0.511971 0.213170
0.805863 0.511183 0.216503
0.916758 0.511285 0.220179
1.000000 0.511978 0.223999
0.000000 0.677149 0.211432
0.095048 0.674028 0.212471
0.217647 0.670762 0.215058
0.356603 0.667877 0.218997
0.515248 0.665734 0.224907
0.668893 0.664937 0.232205
0.795716 0.665320 0.239508
0.902056 0.666431 0.246604
0.992333 0.667897 0.253296
0.015992 0.797990 0.222625
0.121511 0.795305 0.226803
0.240233 0.792897 0.232301
0.374689 0.791009 0.239618
0.528046 0.790037 0.249499
0.676402 0.790412 0.260766
0.798724 0.791791 0.271448
0.901187 0.793761 0.281454
0.987898 0.795783 0.290488
0.050278 0.898340 0.241900
0.152891 0.896299 0.248261
0.268273 0.894631 0.256265
0.398851 0.893602 0.266493
0.547653 0.893639 0.279794
0.691454 0.895023 0.294481
0.809899 0.897261 0.308073
0.909023 0.899970 0.320587
0.992588 0.902396 0.331563
0.086461 0.982942 0.265417
0.186508 0.981426 0.273641
0.298938 0.980356 0.283782
0.426083 0.980015 0.296484
0.570842 0.980852 0.312683
0.710590 0.983026 0.330259
0.825578 0.985928 0.346302
0.921718 0.989205 0.360920
1.000000 0.991855 0.373460
0.013372 0.023107 0.405682
0.116428 0.021463 0.403151
0.234834 0.019574 0.400244
0.372293 0.017381 0.396868
0.533808 0.014805 0.392902
0.695322 0.012228 0.388936
0.832781 0.010035 0.385560
0.951187 0.008146 0.382653
1.000000 0.006502 0.380122
0.009332 0.121834 0.397169
0.112389 0.120190 0.394638
0.230794 0.118301 0.391730
0.368253 0.116108 0.388355
0.529768 0.113531 0.384389
0.691283 0.110954 0.380422
0.828742 0.108761 0.377047
0.947147 0.106872 0.374139
1.000000 0.105228 0.371608
0.004691 0.235264 0.387387
0.107747 0.233620 0.384856
0.226153 0.231731 0.381949
0.363612 0.229538 0.378573
0.525127 0.226962 0.374607
0.686641 0.224385 0.370641
0.824101 0.222192 0.367265
0.942506 0.220303 0.364358
1.000000 0.218659 0.361827
0.000000 0.366948 0.376032
0.102359 0.365304 0.373501
0.220765 0.363415 0.370593
0.358224 0.361222 0.367218
0.519739 0.358645 0.363252
0.681253 0.356069 0.359285
0.818713 0.353876 0.355910
0.937118 0.351987 0.353002
1.000000 0.350343 0.350472
0.000000 0.521676 0.362689
0.096028 0.520032 0.360158
0.214434 0.518143 0.357251
0.351893 0.515950 0.353875
0.513429 0.513378 0.350085
0.672754 0.511594 0.350435
0.804411 0.511137 0.351824
0.914915 0.511525 0.353827
1.000000 0.512462 0.356187
0.000000 0.675838 0.350050
0.097234 0.672654 0.350239
0.219441 0.669673 0.351152
0.357943 0.667119 0.353147
0.516054 0.665365 0.356775
0.669165 0.664958 0.361790
0.795534 0.665672 0.367150
0.901482 0.667069 0.372572
0.991403 0.668767 0.377792
0.019599 0.796706 0.355313
0.124778 0.794269 0.358034
0.243108 0.792147 0.361858
0.377109 0.790590 0.367232
0.529933 0.790007 0.374830
0.677755 0.790771 0.383815
0.799623 0.792482 0.392554
0.901694 0.794737 0.400887
0.988040 0.796983 0.408439
0.054816 0.897348 0.368958
0.157088 0.895555 0.373862
0.272079 0.894172 0.380193
0.402203 0.893474 0.388477
0.550471 0.893901 0.399495
0.693738 0.895673 0.411900
0.811729 0.898242 0.423549
0.910461 0.901237 0.434389
0.993653 0.903879 0.443876
0.091794 0.982188 0.387559
0.191499 0.980919 0.394324
0.303536 0.980132 0.402790
0.430224 0.980120 0.413546
0.574446 0.981343 0.427459
0.713657 0.983903 0.442750
0.828189 0.987135 0.456847
0.923935 0.990695 0.469791
1.000000 0.993552 0.480832
0.012732 0.022232 0.567732
0.115789 0.020588 0.565201
0.234195 0.018699 0.562293
0.371654 0.016506 0.558918
0.533168 0.013929 0.554952
0.694683 0.011353 0.550985
0.832142 0.009160 0.547610
0.950548 0.007271 0.544702
1.000000 0.005627 0.542172
0.008693 0.120959 0.559218
0.111750 0.119315 0.556687
0.230155 0.117426 0.553780
0.367614 0.115233 0.550404
0.529129 0.112656 0.546438
0.690643 0.110079 0.542472
0.828103 0.107886 0.539096
0.946508 0.105997 0.536189
1.000000 0.104353 0.533658
0.004052 0.234389 0.549437
0.107108 0.232745 0.546906
0.225514 0.230856 0.543998
0.362973 0.228663 0.540623
0.524488 0.226087 0.536657
0.686002 0.223510 0.532690
0.823462 0.221317 0.529315
0.941867 0.219428 0.526407
1.000000 0.217784 0.523877
0.000000 0.366073 0.538081
0.101720 0.364429 0.535551
0.220126 0.362540 0.532643
0.357585 0.360347 0.529268
0.519100 0.357770 0.525301
0.680614 0.355194 0.521335
0.818073 0.353001 0.517960
0.936479 0.351112 0.515052
1.000000 0.350305 0.512667
0.000000 0.520801 0.524739
0.095389 0.519157 0.522208
0.213795 0.517268 0.519300
0.351254 0.515075 0.515925
0.513023 0.512621 0.512219
0.671721 0.511295 0.509886
0.802844 0.511227 0.508993
0.912888 0.511950 0.509029
1.000000 0.513173 0.509672
0.000000 0.674075 0.511804
0.099941 0.671183 0.510281
0.221688 0.668537 0.509228
0.359656 0.666373 0.508940
0.517141 0.665076 0.509886
0.669625 0.665126 0.512218
0.795459 0.666229 0.515295
0.900948 0.667961 0.518750
0.990450 0.669932 0.522240
0.023977 0.795341 0.509386
0.128756 0.793196 0.510397
0.246626 0.791408 0.512254
0.380093 0.790241 0.515345
0.532289 0.790116 0.520261
0.679485 0.791337 0.526563
0.800818 0.793437 0.533019
0.902430 0.796027 0.539385
0.988346 0.798534 0.545196
0.060288 0.896326 0.516416
0.162160 0.894825 0.519609
0.276691 0.893777 0.523973
0.406281 0.893468 0.529975
0.553922 0.894352 0.538310
0.696562 0.896582 0.548032
0.814019 0.899540 0.557399
0.912291 0.902870 0.566272
0.995042 0.905764 0.574008
0.098199 0.981445 0.529240
0.197501 0.980465 0.534292
0.309076 0.980011 0.540789
0.435227 0.980385 0.549259
0.578819 0.982062 0.560487
0.717400 0.985076 0.573091
0.831395 0.988694 0.584903
0.926679 0.992587 0.595878
1.000000 0.995686 0.605157
0.012093 0.021357 0.729781
0.115150 0.019713 0.727251
0.233555 0.017824 0.724343
0.371015 0.015631 0.720967
0.532529 0.013054 0.717001
0.694044 0.010478 0.713035
0.831503 0.008285 0.709659
0.949909 0.006396 0.706752
1.000000 0.004752 0.704221
0.008054 0.120084 0.721268
0.111110 0.118440 0.718737
0.229516 0.116551 0.715829
0.366975 0.114358 0.712454
0.528490 0.111781 0.708488
0.690004 0.109204 0.704522
0.827464 0.107011 0.701146
0.945869 0.105122 0.698238
1.000000 0.103478 0.695708
0.003413 0.233514 0.711486
0.106469 0.231870 0.708956
0.224875 0.229981 0.706048
0.362334 0.227788 0.702673
0.523849 0.225212 0.698706
0.685363 0.222635 0.694740
0.822822 0.220442 0.691365
0.941228 0.218553 0.688457
1.000000 0.216909 0.685926
0.000000 0.365198 0.700131
0.101081 0.363554 0.697600
0.219487 0.361665 0.694693
0.356946 0.359472 0.691317
0.518460 0.356895 0.687351
0.679975 0.354319 0.683385
0.817434 0.352126 0.680009
0.935840 0.350237 0.677102
1.000000 0.350716 0.673206
0.000000 0.519926 0.686788
0.094750 0.518282 0.684258
0.213156 0.516393 0.681350
0.350615 0.514200 0.677974
0.512768 0.512020 0.672372
0.670838 0.511151 0.667356
0.801428 0.511472 0.664180
0.911012 0.512530 0.662250
1.000000 0.514037 0.661174
0.000000 0.672467 0.671576
0.102799 0.669867 0.668341
0.224087 0.667556 0.665322
0.361521 0.665781 0.662751
0.518378 0.664942 0.661014
0.670234 0.665449 0.660664
0.795535 0.666941 0.661458
0.900564 0.669008 0.662947
0.989645 0.671252 0.664705
0.028506 0.794131 0.661478
0.132884 0.792278 0.660777
0.250294 0.790826 0.660668
0.383228 0.790048 0.661476
0.534796 0.790379 0.663709
0.681364 0.792058 0.667329
0.802164 0.794547 0.671502
0.903316 0.797472 0.675902
0.988800 0.800240 0.679970
0.065911 0.895458 0.661893
0.167382 0.894249 0.663374
0.281453 0.893537 0.665772
0.410510 0.893617 0.669490
0.557523 0.894958 0.675143
0.699536 0.897645 0.682183
0.816459 0.900993 0.689266
0.914271 0.904658 0.696173
0.996581 0.907803 0.702156
0.104753 0.980855 0.668938
0.203653 0.980165 0.672277
0.314766 0.980044 0.676805
0.440381 0.980805 0.682990
0.583341 0.982936 0.691531
0.721292 0.986404 0.701450
0.834750 0.990408 0.710976
0.929572 0.994634 0.719982
1.000000 0.997973 0.727499
0.011549 0.020612 0.867696
0.114606 0.018968 0.865165
0.233012 0.017079 0.862257
0.370471 0.014886 0.858882
0.531985 0.012310 0.854916
0.693500 0.009733 0.850950
0.830959 0.007540 0.847574
0.949365 0.005651 0.844666
1.000000 0.004007 0.842136
0.007510 0.119339 0.859182
0.110566 0.117695 0.856652
0.228972 0.115806 0.853744
0.366431 0.113613 0.850369
0.527946 0.111036 0.846402
0.689460 0.108460 0.842436
0.826920 0.106267 0.839061
0.945325 0.104378 0.836153
1.000000 0.102734 0.833622
0.002869 0.232769 0.849401
0.105925 0.231125 0.846870
0.224331 0.229236 0.843963
0.361790 0.227043 0.840587
0.523305 0.224467 0.836621
0.684819 0.221890 0.832655
0.822278 0.219697 0.829279
0.940684 0.217808 0.826372
1.000000 0.216164 0.823841
0.000000 0.364453 0.838045
0.100537 0.362809 0.835515
0.218943 0.360920 0.832607
0.356402 0.358727 0.829232
0.517917 0.356150 0.825265
0.679431 0.353574 0.821299
0.816890 0.351381 0.817924
0.933494 0.350291 0.813765
1.000000 0.351186 0.808273
0.000000 0.519182 0.824703
0.094206 0.517537 0.822172
0.212612 0.515648 0.819265
0.350132 0.513457 0.815795
0.512670 0.511630 0.807111
0.670206 0.511150 0.799812
0.800341 0.511802 0.794693
0.909533 0.513146 0.791089
1.000000 0.514895 0.788549
0.000000 0.671222 0.805991
0.105350 0.668870 0.801300
0.226247 0.666844 0.796606
0.363226 0.665400 0.792093
0.519550 0.664950 0.788073
0.670872 0.665846 0.785440
0.795718 0.667670 0.784291
0.900356 0.670022 0.784106
0.989078 0.672496 0.784389
0.032478 0.793224 0.789357
0.136516 0.791619 0.787199
0.253535 0.790452 0.785417
0.386014 0.790005 0.784282
0.537049 0.790726 0.784232
0.683083 0.792794 0.785569
0.803429 0.795614 0.787799
0.904189 0.798825 0.790525
0.989305 0.801813 0.793109
0.070814 0.894843 0.784142
0.171945 0.893882 0.784166
0.285625 0.893455 0.784890
0.414227 0.893866 0.786666
0.560706 0.895596 0.790036
0.702185 0.898673 0.794793
0.818654 0.902351 0.799933
0.916075 0.906302 0.805166
0.998009 0.909659 0.809657
0.110449 0.980475 0.786269
0.209007 0.980032 0.788149
0.319726 0.980194 0.791001
0.444884 0.981283 0.795240
0.587308 0.983801 0.801496
0.724722 0.987655 0.809129
0.837723 0.991989 0.816710
0.932152 0.996498 0.824040
1.000000 1.000000 0.830056
0.011081 0.019971 0.986494
0.114138 0.018327 0.983963
0.232543 0.016438 0.981055
0.370002 0.014245 0.977680
0.531517 0.011668 0.973713
0.693031 0.009091 0.969747
0.830491 0.006899 0.966372
0.948896 0.005010 0.963464
1.000000 0.003365 0.960933
0.007041 0.118697 0.977980
0.110098 0.117053 0.975449
0.228503 0.115164 0.972542
0.365963 0.112971 0.969166
0.527477 0.110395 0.965200
0.688992 0.107818 0.961234
0.826451 0.105625 0.957858
0.944857 0.103736 0.954951
1.000000 0.102092 0.952420
0.002400 0.232128 0.968199
0.105457 0.230484 0.965668
0.223862 0.228595 0.962760
0.361321 0.226402 0.959385
0.522836 0.223825 0.955419
0.684351 0.221249 0.951452
0.821810 0.219056 0.948077
0.940215 0.217167 0.945169
1.000000 0.215523 0.942638
0.000000 0.363812 0.956843
0.100069 0.362168 0.954312
0.218474 0.360279 0.951405
0.355933 0.358086 0.948029
0.517448 0.355509 0.944063
0.678963 0.352932 0.940097
0.816422 0.350739 0.936721
0.931214 0.350569 0.930210
1.000000 0.351681 0.923466
0.000000 0.518540 0.943501
0.093738 0.516896 0.940970
0.212143 0.515007 0.938062
0.350595 0.512876 0.932673
0.512672 0.511385 0.922022
0.669749 0.511240 0.912757
0.799492 0.512177 0.905965
0.908348 0.513767 0.900919
1.000000 0.515722 0.897117
0.000517 0.670239 0.920623
0.107635 0.668101 0.914677
0.228194 0.666321 0.908543
0.364783 0.665162 0.902355
0.520646 0.665047 0.896369
0.671509 0.666279 0.891769
0.795964 0.668388 0.888947
0.900264 0.670986 0.887321
0.988677 0.673656 0.886332
0.035988 0.792532 0.898360
0.139732 0.791142 0.894947
0.256414 0.790220 0.891722
0.388502 0.790059 0.888914
0.539077 0.791115 0.886898
0.684651 0.793518 0.886268
0.804605 0.796623 0.886825
0.905028 0.800080 0.888109
0.989826 0.803258 0.889413
0.075126 0.894403 0.888294
0.175963 0.893656 0.887064
0.289306 0.893474 0.886346
0.417517 0.894171 0.886449
0.563536 0.896236 0.887852
0.704555 0.899648 0.890642
0.820632 0.903612 0.894109
0.917716 0.907808 0.897901
0.999325 0.911348 0.901105
0.115442 0.980237 0.886184
0.213705 0.980006 0.886808
0.324085 0.980412 0.888216
0.448850 0.981785 0.890780
0.590812 0.984636 0.895067
0.727763 0.988823 0.900732
0.840371 0.993439 0.906637
0.934461 0.998192 0.912523
1.000000 1.000000 0.917245
0.010767 0.019506 1.000000
0.113818 0.017857 1.000000
0.232218 0.015963 1.000000
0.369671 0.013764 1.000000
0.531179 0.011179 1.000000
0.692686 0.008595 1.000000
0.830139 0.006396 1.000000
0.948539 0.004502 1.000000
1.000000 0.002853 1.000000
0.006711 0.118217 1.000000
0.109763 0.116568 1.000000
0.228163 0.114673 1.000000
0.365616 0.112474 1.000000
0.527123 0.109890 1.000000
0.688630 0.107306 1.000000
0.826083 0.105107 1.000000
0.944483 0.103212 1.000000
1.000000 0.101563 1.000000
0.002052 0.231629 1.000000
0.105103 0.229980 1.000000
0.223503 0.228086 1.000000
0.360956 0.225886 1.000000
0.522464 0.223302 1.000000
0.683971 0.220718 1.000000
0.821424 0.218519 1.000000
0.939824 0.216624 1.000000
1.000000 0.214976 1.000000
0.000000 0.363291 1.000000
0.099694 0.361642 1.000000
0.218094 0.359748 1.000000
0.355547 0.357549 1.000000
0.517054 0.354965 1.000000
0.678561 0.352380 1.000000
0.816014 0.350181 1.000000
0.929296 0.350879 1.000000
1.000000 0.352179 1.000000
0.000000 0.517995 1.000000
0.093338 0.516346 1.000000
0.211738 0.514451 1.000000
0.351063 0.512439 1.000000
0.512740 0.511239 1.000000
0.669417 0.511386 1.000000
0.798820 0.512572 1.000000
0.907382 0.514375 0.995644
0.999660 0.516510 0.990744
0.002827 0.669451 1.000000
0.109690 0.667499 1.000000
0.229956 0.665933 1.000000
0.366204 0.665023 0.997458
0.521667 0.665200 0.989760
0.672129 0.666723 0.983448
0.796243 0.669080 0.979169
0.900250 0.671892 0.976288
0.988392 0.674734 0.974193
0.039108 0.791998 0.992365
0.142597 0.790794 0.987860
0.258986 0.790087 0.983381
0.390733 0.790173 0.979116
0.540907 0.791521 0.975388
0.686081 0.794216 0.973047
0.805695 0.797570 0.972147
0.905825 0.801240 0.972176
0.990345 0.804582 0.972367
0.078944 0.894088 0.978079
0.179527 0.893527 0.975756
0.292576 0.893559 0.973784
0.420446 0.894504 0.972429
0.566065 0.896861 0.972121
0.706684 0.900565 0.973200
0.822420 0.904777 0.975210
0.919211 0.909187 0.977747
1.000000 0.912885 0.979831
0.119854 0.980098 0.972280
0.217860 0.980051 0.971810
0.327945 0.980670 0.971963
0.452367 0.982289 0.973068
0.593927 0.985429 0.975641
0.730476 0.989906 0.979592
0.842742 0.994769 0.984039
0.936537 0.999735 0.988669
1.000000 1.000000 0.992264
