assets/luts/cinematic_film.cube
# Cinematic film emulation LUT (generated by scripts/generate_luts.py)
LUT_3D_SIZE 5
0.014792 0.025052 0.045572
0.236254 0.021519 0.040134
0.535228 0.016749 0.032792
0.834202 0.011979 0.025450
1.000000 0.008446 0.020012
0.006111 0.237209 0.027277
0.227573 0.233676 0.021839
0.526547 0.228906 0.014497
0.825521 0.224137 0.007155
1.000000 0.220603 0.001717
0.000000 0.523621 0.002579
0.215854 0.520088 0.000000
0.514828 0.515318 0.000000
0.808432 0.511493 0.000000
1.000000 0.511434 0.008009
0.010410 0.800295 0.005831
0.235831 0.794343 0.020550
0.525235 0.790322 0.044556
0.797506 0.790916 0.073314
0.987897 0.794085 0.097435
0.078096 0.984392 0.065612
0.291759 0.980953 0.089027
0.565263 0.980296 0.124743
0.821600 0.984220 0.165179
0.999687 0.989355 0.197449
0.013916 0.023852 0.267768
0.235378 0.020319 0.262329
0.534351 0.015549 0.254987
0.833325 0.010780 0.247646
1.000000 0.007247 0.242207
0.005235 0.236009 0.249473
0.226697 0.232476 0.244034
0.525671 0.227706 0.236693
0.824645 0.222937 0.229351
1.000000 0.219404 0.223912
0.000000 0.522421 0.224775
0.214978 0.518888 0.219336
0.513952 0.514118 0.211994
0.805863 0.511183 0.216503
1.000000 0.511978 0.223999
0.015992 0.797990 0.222625
0.240233 0.792897 0.232301
0.528046 0.790037 0.249499
0.798724 0.791791 0.271448
0.987898 0.795783 0.290488
0.086461 0.982942 0.265417
0.298938 0.980356 0.283782
0.570842 0.980852 0.312683
0.825578 0.985928 0.346302
1.000000 0.991855 0.373460
0.012732 0.022232 0.567732
0.234195 0.018699 0.562293
0.533168 0.013929 0.554952
0.832142 0.009160 0.547610
1.000000 0.005627 0.542172
0.004052 0.234389 0.549437
0.225514 0.230856 0.543998
0.524488 0.226087 0.536657
0.823462 0.221317 0.529315
1.000000 0.217784 0.523877
0.000000 0.520801 0.524739
0.213795 0.517268 0.519300
0.513023 0.512621 0.512219
0.802844 0.511227 0.508993
1.000000 0.513173 0.509672
0.023977 0.795341 0.509386
0.246626 0.791408 0.512254
0.532289 0.790116 0.520261
0.800818 0.793437 0.533019
0.988346 0.798534 0.545196
0.098199 0.981445 0.529240
0.309076 0.980011 0.540789
0.578819 0.982062 0.560487
0.831395 0.988694 0.584903
1.000000 0.995686 0.605157
0.011549 0.020612 0.867696
0.233012 0.017079 0.862257
0.531985 0.012310 0.854916
0.830959 0.007540 0.847574
1.000000 0.004007 0.842136
0.002869 0.232769 0.849401
0.224331 0.229236 0.843963
0.523305 0.224467 0.836621
0.822278 0.219697 0.829279
1.000000 0.216164 0.823841
0.000000 0.519182 0.824703
0.212612 0.515648 0.819265
0.512670 0.511630 0.807111
0.800341 0.511802 0.794693
1.000000 0.514895 0.788549
0.032478 0.793224 0.789357
0.253535 0.790452 0.785417
0.537049 0.790726 0.784232
0.803429 0.795614 0.787799
0.989305 0.801813 0.793109
0.110449 0.980475 0.786269
0.319726 0.980194 0.791001
0.587308 0.983801 0.801496
0.837723 0.991989 0.816710
1.000000 1.000000 0.830056
0.010767 0.019506 1.000000
0.232218 0.015963 1.000000
0.531179 0.011179 1.000000
0.830139 0.006396 1.000000
1.000000 0.002853 1.000000
0.002052 0.231629 1.000000
0.223503 0.228086 1.000000
0.522464 0.223302 1.000000
0.821424 0.218519 1.000000
1.000000 0.214976 1.000000
0.000000 0.517995 1.000000
0.211738 0.514451 1.000000
0.512740 0.511239 1.000000
0.798820 0.512572 1.000000
0.999660 0.516510 0.990744
0.039108 0.791998 0.992365
0.258986 0.790087 0.983381
0.540907 0.791521 0.975388
0.805695 0.797570 0.972147
0.990345 0.804582 0.972367
0.119854 0.980098 0.972280
0.327945 0.980670 0.971963
0.593927 0.985429 0.975641
0.842742 0.994769 0.984039
1.000000 1.000000 0.992264
