assets/luts/cinematic_film.cube
# Cinematic film emulation LUT (generated by scripts/generate_luts.py)
LUT_3D_SIZE 33
0.014792 0.025052 0.045572
0.039283 0.024661 0.044970
0.064594 0.024257 0.044349
0.090768 0.023840 0.043706
0.117848 0.023408 0.043041
0.145884 0.022960 0.042353
0.174926 0.022497 0.041640
0.205030 0.022017 0.040900
0.236254 0.021519 0.040134
0.268663 0.021002 0.039338
0.302326 0.020465 0.038511
0.337316 0.019906 0.037652
0.373713 0.019326 0.036758
0.411605 0.018721 0.035828
0.451085 0.018091 0.034858
0.492256 0.017435 0.033847
0.535228 0.016749 0.032792
0.578200 0.016064 0.031737
0.619370 0.015407 0.030726
0.658850 0.014777 0.029756
0.696742 0.014172 0.028826
0.733140 0.013592 0.027932
0.768130 0.013034 0.027073
0.801793 0.012497 0.026246
0.834202 0.011979 0.025450
0.865426 0.011481 0.024683
0.895530 0.011001 0.023944
0.924572 0.010538 0.023231
0.952607 0.010091 0.022542
0.979688 0.009658 0.021877
1.000000 0.009241 0.021235
1.000000 0.008837 0.020613
1.000000 0.008446 0.020012
0.013832 0.048514 0.043549
0.038323 0.048123 0.042947
0.063634 0.047719 0.042326
0.089808 0.047302 0.041683
0.116888 0.046870 0.041018
0.144924 0.046423 0.040329
0.173966 0.045959 0.039616
0.204070 0.045479 0.038877
0.235294 0.044981 0.038110
0.267703 0.044464 0.037314
0.301366 0.043927 0.036488
0.336356 0.043369 0.035629
0.372753 0.042788 0.034735
0.410645 0.042183 0.033804
0.450125 0.041554 0.032835
0.491296 0.040897 0.031824
0.534268 0.040211 0.030769
0.577240 0.039526 0.029713
0.618410 0.038869 0.028702
0.657890 0.038239 0.027733
0.695782 0.037634 0.026802
0.732180 0.037054 0.025909
0.767170 0.036496 0.025049
0.800833 0.035959 0.024223
0.833242 0.035442 0.023427
0.864466 0.034943 0.022660
0.894570 0.034463 0.021921
0.923612 0.034000 0.021208
0.951647 0.033553 0.020519
0.978728 0.033121 0.019854
1.000000 0.032703 0.019211
1.000000 0.032299 0.018590
1.000000 0.031908 0.017989
0.012840 0.072762 0.041458
0.037331 0.072371 0.040856
0.062642 0.071967 0.040235
0.088816 0.071550 0.039592
0.115896 0.071118 0.038927
0.143932 0.070670 0.038239
0.172974 0.070207 0.037525
0.203077 0.069727 0.036786
0.234302 0.069229 0.036019
0.266711 0.068712 0.035223
0.300373 0.068175 0.034397
0.335363 0.067616 0.033538
0.371761 0.067036 0.032644
0.409653 0.066431 0.031713
0.449133 0.065801 0.030744
0.490304 0.065145 0.029733
0.533276 0.064459 0.028678
0.576247 0.063774 0.027622
0.617418 0.063117 0.026611
0.656898 0.062487 0.025642
0.694790 0.061882 0.024711
0.731188 0.061302 0.023818
0.766178 0.060744 0.022958
0.799840 0.060206 0.022132
0.832250 0.059689 0.021336
0.863474 0.059191 0.020569
0.893577 0.058711 0.019830
0.922619 0.058248 0.019117
0.950655 0.057800 0.018428
0.977736 0.057368 0.017763
1.000000 0.056951 0.017121
1.000000 0.056547 0.016499
1.000000 0.056156 0.015898
0.011814 0.097836 0.039295
0.036305 0.097445 0.038694
0.061616 0.097041 0.038073
0.087790 0.096624 0.037430
0.114870 0.096192 0.036765
0.142906 0.095744 0.036076
0.171948 0.095281 0.035363
0.202051 0.094801 0.034624
0.233276 0.094303 0.033857
0.265685 0.093786 0.033061
0.299347 0.093249 0.032235
0.334337 0.092690 0.031375
0.370735 0.092110 0.030482
0.408627 0.091505 0.029551
0.448107 0.090875 0.028582
0.489278 0.090218 0.027571
0.532250 0.089533 0.026515
0.575222 0.088847 0.025460
0.616392 0.088191 0.024449
0.655872 0.087561 0.023480
0.693764 0.086956 0.022549
0.730162 0.086376 0.021655
0.765152 0.085817 0.020796
0.798814 0.085280 0.019970
0.831224 0.084763 0.019174
0.862448 0.084265 0.018407
0.892552 0.083785 0.017668
0.921594 0.083322 0.016955
0.949629 0.082874 0.016266
0.976710 0.082442 0.015601
1.000000 0.082025 0.014958
1.000000 0.081621 0.014337
1.000000 0.081230 0.013735
0.010752 0.123778 0.037058
0.035243 0.123388 0.036457
0.060555 0.122984 0.035835
0.086728 0.122566 0.035193
0.113809 0.122134 0.034528
0.141844 0.121687 0.033839
0.170886 0.121224 0.033126
0.200990 0.120743 0.032387
0.232214 0.120245 0.031620
0.264623 0.119728 0.030824
0.298286 0.119191 0.029998
0.333276 0.118633 0.029138
0.369674 0.118052 0.028245
0.407566 0.117448 0.027314
0.447046 0.116818 0.026345
0.488216 0.116161 0.025334
0.531188 0.115476 0.024278
0.574160 0.114790 0.023223
0.615331 0.114133 0.022212
0.654811 0.113503 0.021243
0.692703 0.112899 0.020312
0.729101 0.112318 0.019418
0.764091 0.111760 0.018559
0.797753 0.111223 0.017732
0.830162 0.110706 0.016937
0.861387 0.110208 0.016170
0.891490 0.109728 0.015431
0.920532 0.109264 0.014717
0.948568 0.108817 0.014029
0.975648 0.108385 0.013364
1.000000 0.107967 0.012721
1.000000 0.107564 0.012100
1.000000 0.107173 0.011498
0.009653 0.150636 0.034742
0.034144 0.150245 0.034141
0.059456 0.149841 0.033519
0.085629 0.149424 0.032877
0.112710 0.148992 0.032212
0.140746 0.148545 0.031523
0.169787 0.148081 0.030810
0.199891 0.147601 0.030071
0.231115 0.147103 0.029304
0.263525 0.146586 0.028508
0.297187 0.146049 0.027682
0.332177 0.145491 0.026822
0.368575 0.144910 0.025929
0.406467 0.144305 0.024998
0.445947 0.143676 0.024029
0.487118 0.143019 0.023018
0.530089 0.142333 0.021962
0.573061 0.141648 0.020907
0.614232 0.140991 0.019896
0.653712 0.140361 0.018927
0.691604 0.139757 0.017996
0.728002 0.139176 0.017102
0.762992 0.138618 0.016243
0.796654 0.138081 0.015416
0.829063 0.137564 0.014621
0.860288 0.137066 0.013854
0.890391 0.136585 0.013115
0.919433 0.136122 0.012401
0.947469 0.135675 0.011713
0.974549 0.135243 0.011048
1.000000 0.134825 0.010405
1.000000 0.134421 0.009784
1.000000 0.134031 0.009182
0.008515 0.178458 0.032343
0.033006 0.178067 0.031742
0.058317 0.177663 0.031120
0.084491 0.177246 0.030478
0.111572 0.176814 0.029813
0.139607 0.176366 0.029124
0.168649 0.175903 0.028411
0.198753 0.175423 0.027672
0.229977 0.174925 0.026905
0.262386 0.174408 0.026109
0.296049 0.173871 0.025282
0.331039 0.173312 0.024423
0.367436 0.172732 0.023529
0.405328 0.172127 0.022599
0.444809 0.171497 0.021629
0.485979 0.170841 0.020618
0.528951 0.170155 0.019563
0.571923 0.169469 0.018508
0.613093 0.168813 0.017497
0.652574 0.168183 0.016527
0.690466 0.167578 0.015597
0.726863 0.166998 0.014703
0.761853 0.166439 0.013844
0.795516 0.165902 0.013017
0.827925 0.165385 0.012221
0.859149 0.164887 0.011455
0.889253 0.164407 0.010715
0.918295 0.163944 0.010002
0.946330 0.163496 0.009314
0.973411 0.163064 0.008649
0.999584 0.162647 0.008006
1.000000 0.162243 0.007385
1.000000 0.161852 0.006783
0.007335 0.207296 0.029856
0.031826 0.206906 0.029255
0.057137 0.206502 0.028633
0.083311 0.206084 0.027991
0.110392 0.205652 0.027326
0.138427 0.205205 0.026637
0.167469 0.204742 0.025924
0.197573 0.204261 0.025185
0.228797 0.203763 0.024418
0.261206 0.203246 0.023622
0.294869 0.202709 0.022796
0.329859 0.202151 0.021936
0.366256 0.201570 0.021043
0.404148 0.200966 0.020112
0.443629 0.200336 0.019143
0.484799 0.199679 0.018132
0.527771 0.198994 0.017076
0.570743 0.198308 0.016021
0.611913 0.197651 0.015010
0.651394 0.197022 0.014041
0.689286 0.196417 0.013110
0.725683 0.195836 0.012216
0.760673 0.195278 0.011357
0.794336 0.194741 0.010530
0.826745 0.194224 0.009735
0.857969 0.193726 0.008968
0.888073 0.193246 0.008229
0.917115 0.192782 0.007515
0.945150 0.192335 0.006827
0.972231 0.191903 0.006162
0.998404 0.191486 0.005519
1.000000 0.191082 0.004898
1.000000 0.190691 0.004296
0.006111 0.237209 0.027277
0.030602 0.236818 0.026676
0.055914 0.236414 0.026054
0.082087 0.235997 0.025411
0.109168 0.235565 0.024746
0.137203 0.235118 0.024058
0.166245 0.234654 0.023345
0.196349 0.234174 0.022605
0.227573 0.233676 0.021839
0.259982 0.233159 0.021043
0.293645 0.232622 0.020216
0.328635 0.232064 0.019357
0.365032 0.231483 0.018463
0.402924 0.230878 0.017533
0.442405 0.230249 0.016563
0.483575 0.229592 0.015552
0.526547 0.228906 0.014497
0.569519 0.228221 0.013442
0.610689 0.227564 0.012431
0.650170 0.226934 0.011461
0.688062 0.226330 0.010531
0.724459 0.225749 0.009637
0.759449 0.225191 0.008778
0.793112 0.224654 0.007951
0.825521 0.224137 0.007155
0.856745 0.223638 0.006388
0.886849 0.223158 0.005649
0.915891 0.222695 0.004936
0.943926 0.222248 0.004248
0.971007 0.221816 0.003583
0.997181 0.221398 0.002940
1.000000 0.220994 0.002318
1.000000 0.220603 0.001717
0.004841 0.268256 0.024600
0.029332 0.267866 0.023998
0.054643 0.267462 0.023377
0.080817 0.267044 0.022734
0.107897 0.266612 0.022069
0.135933 0.266165 0.021380
0.164975 0.265702 0.020667
0.195078 0.265221 0.019928
0.226303 0.264723 0.019161
0.258712 0.264206 0.018365
0.292374 0.263669 0.017539
0.327364 0.263111 0.016680
0.363762 0.262530 0.015786
0.401654 0.261926 0.014855
0.441134 0.261296 0.013886
0.482305 0.260639 0.012875
0.525277 0.259954 0.011820
0.568248 0.259268 0.010764
0.609419 0.258611 0.009753
0.648899 0.257981 0.008784
0.686791 0.257377 0.007853
0.723189 0.256796 0.006960
0.758179 0.256238 0.006100
0.791841 0.255701 0.005274
0.824251 0.255184 0.004478
0.855475 0.254686 0.003711
0.885579 0.254206 0.002972
0.914620 0.253742 0.002259
0.942656 0.253295 0.001570
0.969737 0.252863 0.000905
0.995910 0.252445 0.000262
1.000000 0.252042 0.000000
1.000000 0.251651 0.000000
0.003521 0.300504 0.021819
0.028012 0.300114 0.021217
0.053324 0.299710 0.020596
0.079497 0.299292 0.019953
0.106578 0.298860 0.019288
0.134613 0.298413 0.018600
0.163655 0.297950 0.017886
0.193759 0.297469 0.017147
0.224983 0.296971 0.016380
0.257392 0.296454 0.015585
0.291055 0.295917 0.014758
0.326045 0.295359 0.013899
0.362443 0.294778 0.013005
0.400335 0.294174 0.012074
0.439815 0.293544 0.011105
0.480985 0.292887 0.010094
0.523957 0.292202 0.009039
0.566929 0.291516 0.007984
0.608100 0.290859 0.006973
0.647580 0.290229 0.006003
0.685472 0.289625 0.005073
0.721869 0.289044 0.004179
0.756859 0.288486 0.003319
0.790522 0.287949 0.002493
0.822931 0.287432 0.001697
0.854155 0.286934 0.000930
0.884259 0.286454 0.000191
0.913301 0.285990 0.000000
0.941337 0.285543 0.000000
0.968417 0.285111 0.000000
0.994591 0.284694 0.000000
1.000000 0.284290 0.000000
1.000000 0.283899 0.000000
0.002150 0.334024 0.018928
0.026641 0.333634 0.018327
0.051952 0.333230 0.017705
0.078126 0.332812 0.017063
0.105206 0.332380 0.016398
0.133242 0.331933 0.015709
0.162284 0.331470 0.014996
0.192387 0.330989 0.014257
0.223612 0.330491 0.013490
0.256021 0.329974 0.012694
0.289683 0.329437 0.011867
0.324673 0.328879 0.011008
0.361071 0.328298 0.010114
0.398963 0.327694 0.009184
0.438443 0.327064 0.008214
0.479614 0.326407 0.007203
0.522586 0.325722 0.006148
0.565557 0.325036 0.005093
0.606728 0.324379 0.004082
0.646208 0.323749 0.003113
0.684100 0.323145 0.002182
0.720498 0.322564 0.001288
0.755488 0.322006 0.000429
0.789150 0.321469 0.000000
0.821560 0.320952 0.000000
0.852784 0.320454 0.000000
0.882888 0.319974 0.000000
0.911929 0.319510 0.000000
0.939965 0.319063 0.000000
0.967046 0.318631 0.000000
0.993219 0.318213 0.000000
1.000000 0.317810 0.000000
1.000000 0.317419 0.000000
0.000723 0.368893 0.015922
0.025214 0.368502 0.015320
0.050525 0.368098 0.014699
0.076699 0.367681 0.014056
0.103780 0.367249 0.013391
0.131815 0.366801 0.012702
0.160857 0.366338 0.011989
0.190961 0.365858 0.011250
0.222185 0.365360 0.010483
0.254594 0.364843 0.009687
0.288257 0.364305 0.008861
0.323247 0.363747 0.008001
0.359644 0.363167 0.007108
0.397536 0.362562 0.006177
0.437017 0.361932 0.005208
0.478187 0.361275 0.004197
0.521159 0.360590 0.003141
0.564131 0.359904 0.002086
0.605301 0.359248 0.001075
0.644782 0.358618 0.000106
0.682674 0.358013 0.000000
0.719071 0.357433 0.000000
0.754061 0.356874 0.000000
0.787724 0.356337 0.000000
0.820133 0.355820 0.000000
0.851357 0.355322 0.000000
0.881461 0.354842 0.000000
0.910503 0.354379 0.000000
0.938538 0.353931 0.000000
0.965619 0.353499 0.000000
0.991792 0.353082 0.000000
1.000000 0.352678 0.000000
1.000000 0.352287 0.000000
0.000000 0.405193 0.012791
0.023729 0.404802 0.012190
0.049040 0.404398 0.011568
0.075214 0.403980 0.010926
0.102294 0.403548 0.010261
0.130330 0.403101 0.009572
0.159372 0.402638 0.008859
0.189475 0.402158 0.008120
0.220700 0.401659 0.007353
0.253109 0.401142 0.006557
0.286771 0.400605 0.005730
0.321761 0.400047 0.004871
0.358159 0.399467 0.003977
0.396051 0.398862 0.003047
0.435531 0.398232 0.002077
0.476702 0.397575 0.001066
0.519674 0.396890 0.000011
0.562645 0.396204 0.000000
0.603816 0.395547 0.000000
0.643296 0.394918 0.000000
0.681188 0.394313 0.000000
0.717586 0.393732 0.000000
0.752576 0.393174 0.000000
0.786238 0.392637 0.000000
0.818648 0.392120 0.000000
0.849872 0.391622 0.000000
0.879976 0.391142 0.000000
0.909017 0.390678 0.000000
0.937053 0.390231 0.000000
0.964134 0.389799 0.000000
0.990307 0.389382 0.000000
1.000000 0.388978 0.000000
1.000000 0.388587 0.000000
0.000000 0.443014 0.009530
0.022181 0.442623 0.008928
0.047493 0.442219 0.008307
0.073666 0.441802 0.007664
0.100747 0.441370 0.006999
0.128782 0.440923 0.006311
0.157824 0.440459 0.005598
0.187928 0.439979 0.004858
0.219152 0.439481 0.004092
0.251561 0.438964 0.003296
0.285224 0.438427 0.002469
0.320214 0.437869 0.001610
0.356612 0.437288 0.000716
0.394504 0.436683 0.000000
0.433984 0.436054 0.000000
0.475154 0.435397 0.000000
0.518126 0.434711 0.000000
0.561098 0.434026 0.000000
0.602269 0.433369 0.000000
0.641749 0.432739 0.000000
0.679641 0.432135 0.000000
0.716038 0.431554 0.000000
0.751028 0.430996 0.000000
0.784691 0.430459 0.000000
0.817100 0.429942 0.000000
0.848324 0.429444 0.000000
0.878428 0.428963 0.000000
0.907470 0.428500 0.000000
0.934540 0.428277 0.000000
0.960212 0.428177 0.000000
0.984891 0.428116 0.000000
1.000000 0.428091 0.000000
1.000000 0.428111 0.000000
0.000000 0.482455 0.006129
0.020568 0.482064 0.005527
0.045879 0.481660 0.004906
0.072052 0.481243 0.004263
0.099133 0.480811 0.003598
0.127169 0.480363 0.002910
0.156211 0.479900 0.002196
0.186314 0.479420 0.001457
0.217539 0.478922 0.000690
0.249948 0.478405 0.000000
0.283610 0.477868 0.000000
0.318600 0.477309 0.000000
0.354998 0.476729 0.000000
0.392890 0.476124 0.000000
0.432370 0.475494 0.000000
0.473541 0.474838 0.000000
0.516512 0.474152 0.000000
0.559484 0.473466 0.000000
0.600655 0.472810 0.000000
0.640135 0.472180 0.000000
0.678027 0.471575 0.000000
0.714425 0.470995 0.000000
0.749415 0.470436 0.000000
0.782840 0.469945 0.000000
0.814166 0.469648 0.000000
0.844157 0.469413 0.000000
0.872894 0.469234 0.000000
0.900453 0.469105 0.000000
0.926904 0.469023 0.000000
0.952311 0.468981 0.000000
0.976733 0.468977 0.000000
1.000000 0.469007 0.000000
1.000000 0.469088 0.000000
0.000000 0.523621 0.002579
0.018883 0.523230 0.001977
0.044195 0.522826 0.001356
0.070368 0.522409 0.000713
0.097449 0.521977 0.000048
0.125484 0.521530 0.000000
0.154526 0.521066 0.000000
0.184630 0.520586 0.000000
0.215854 0.520088 0.000000
0.248263 0.519571 0.000000
0.281926 0.519034 0.000000
0.316916 0.518476 0.000000
0.353313 0.517895 0.000000
0.391205 0.517290 0.000000
0.430686 0.516661 0.000000
0.471856 0.516004 0.000000
0.514828 0.515318 0.000000
0.557800 0.514633 0.000000
0.598970 0.513976 0.000000
0.638333 0.513352 0.000000
0.675589 0.512816 0.000000
0.711117 0.512371 0.000000
0.745032 0.512007 0.000000
0.777438 0.511717 0.000000
0.808432 0.511493 0.000000
0.838103 0.511329 0.000000
0.866532 0.511218 0.000000
0.893794 0.511156 0.000261
0.919958 0.511136 0.001837
0.945088 0.511156 0.003399
0.969242 0.511212 0.004946
0.992475 0.511299 0.006476
1.000000 0.511434 0.008009
0.000000 0.564787 0.000000
0.017199 0.564397 0.000000
0.042510 0.563993 0.000000
0.068684 0.563575 0.000000
0.095764 0.563143 0.000000
0.123800 0.562696 0.000000
0.152842 0.562233 0.000000
0.182945 0.561752 0.000000
0.214170 0.561254 0.000000
0.246579 0.560737 0.000000
0.280241 0.560200 0.000000
0.315231 0.559642 0.000000
0.351629 0.559061 0.000000
0.389521 0.558457 0.000000
0.429001 0.557827 0.000000
0.470172 0.557170 0.000000
0.513243 0.556360 0.000000
0.556051 0.555581 0.000000
0.596734 0.554924 0.000000
0.635440 0.554376 0.000000
0.672309 0.553926 0.000000
0.707464 0.553564 0.000000
0.741021 0.553280 0.000000
0.773082 0.553066 0.001482
0.803745 0.552916 0.003345
0.833096 0.552822 0.005193
0.861217 0.552779 0.007024
0.888182 0.552783 0.008836
0.914059 0.552827 0.010627
0.938911 0.552908 0.012397
0.962797 0.553023 0.014145
0.985772 0.553168 0.015871
1.000000 0.553347 0.017580
0.000000 0.604228 0.000000
0.015585 0.603837 0.000000
0.040896 0.603433 0.000000
0.067070 0.603016 0.000000
0.094151 0.602584 0.000000
0.122186 0.602137 0.000000
0.151228 0.601673 0.000000
0.181332 0.601193 0.000000
0.212556 0.600695 0.000000
0.244965 0.600178 0.000000
0.278628 0.599641 0.000000
0.313618 0.599083 0.000000
0.350183 0.598429 0.000000
0.388751 0.597504 0.000000
0.428643 0.596618 0.000000
0.469925 0.595781 0.000000
0.512666 0.595000 0.000000
0.555053 0.594314 0.000000
0.595331 0.593747 0.000000
0.633650 0.593284 0.001231
0.670147 0.592917 0.003406
0.704946 0.592633 0.005567
0.738159 0.592425 0.007711
0.769891 0.592285 0.009835
0.800236 0.592205 0.011937
0.829281 0.592179 0.014015
0.857107 0.592202 0.016067
0.883786 0.592268 0.018093
0.909388 0.592373 0.020091
0.933975 0.592513 0.022061
0.957604 0.592685 0.024001
0.980331 0.592884 0.025913
1.000000 0.593098 0.027784
0.000000 0.642049 0.000000
0.014037 0.641659 0.000000
0.039349 0.641255 0.000000
0.065522 0.640837 0.000000
0.092603 0.640405 0.000000
0.120639 0.639958 0.000000
0.149680 0.639495 0.000000
0.179784 0.639015 0.000000
0.211122 0.638474 0.000000
0.244675 0.637515 0.000000
0.279313 0.636577 0.000000
0.315087 0.635664 0.000000
0.352051 0.634781 0.000000
0.390262 0.633934 0.000000
0.429783 0.633131 0.000000
0.470677 0.632379 0.000000
0.513014 0.631688 0.001751
0.554997 0.631092 0.004245
0.594888 0.630610 0.006726
0.632836 0.630230 0.009190
0.668977 0.629942 0.011632
0.703433 0.629734 0.014051
0.736317 0.629599 0.016442
0.767732 0.629528 0.018803
0.797772 0.629516 0.021134
0.826524 0.629555 0.023433
0.854067 0.629640 0.025697
0.880473 0.629767 0.027928
0.905811 0.629931 0.030124
0.930144 0.630127 0.032285
0.953527 0.630353 0.034410
0.976015 0.630606 0.036500
0.997622 0.630845 0.038519
0.000000 0.678349 0.000000
0.012552 0.677959 0.000000
0.037864 0.677555 0.000000
0.064037 0.677137 0.000000
0.091756 0.676479 0.000000
0.121177 0.675531 0.000000
0.151494 0.674592 0.000000
0.182750 0.673665 0.000000
0.214985 0.672753 0.000000
0.248246 0.671859 0.000000
0.282580 0.670988 0.000000
0.318038 0.670145 0.000000
0.354674 0.669335 0.000000
0.392543 0.668564 0.001971
0.431707 0.667840 0.004266
0.472230 0.667170 0.006748
0.514179 0.666564 0.009434
0.555774 0.666054 0.012219
0.595294 0.665655 0.014979
0.632886 0.665354 0.017710
0.668684 0.665141 0.020410
0.702812 0.665006 0.023075
0.735380 0.664941 0.025703
0.766491 0.664938 0.028293
0.796239 0.664990 0.030843
0.824709 0.665091 0.033353
0.851980 0.665237 0.035822
0.878124 0.665422 0.038249
0.903209 0.665642 0.040635
0.927297 0.665892 0.042980
0.950444 0.666171 0.045282
0.972704 0.666473 0.047544
0.994057 0.666729 0.049696
0.000000 0.712503 0.000000
0.014692 0.711590 0.000000
0.041422 0.710678 0.000000
0.068933 0.709770 0.000000
0.097260 0.708869 0.000000
0.126437 0.707975 0.000000
0.156503 0.707092 0.000000
0.187498 0.706222 0.000000
0.219463 0.705370 0.000000
0.252443 0.704538 0.000811
0.286485 0.703732 0.002727
0.321639 0.702956 0.004781
0.357959 0.702216 0.006988
0.395500 0.701518 0.009359
0.434322 0.700869 0.011912
0.474488 0.700279 0.014662
0.516064 0.699756 0.017628
0.557287 0.699328 0.020692
0.596450 0.699008 0.023720
0.633699 0.698783 0.026709
0.669169 0.698642 0.029655
0.702981 0.698577 0.032556
0.735246 0.698579 0.035412
0.766066 0.698641 0.038221
0.795532 0.698755 0.040982
0.823731 0.698917 0.043696
0.850741 0.699120 0.046360
0.876634 0.699361 0.048977
0.901476 0.699634 0.051545
0.925329 0.699937 0.054066
0.948249 0.700266 0.056539
0.970290 0.700617 0.058965
0.991393 0.700882 0.061240
0.000000 0.743164 0.000000
0.021345 0.742295 0.000000
0.047865 0.741431 0.000000
0.075158 0.740571 0.000000
0.103259 0.739720 0.000000
0.132203 0.738877 0.000528
0.162027 0.738048 0.002169
0.192770 0.737234 0.003917
0.224475 0.736439 0.005782
0.257184 0.735668 0.007771
0.290946 0.734923 0.009897
0.325809 0.734212 0.012171
0.361825 0.733539 0.014605
0.399051 0.732911 0.017214
0.437544 0.732335 0.020013
0.477366 0.731821 0.023020
0.518585 0.731377 0.026256
0.559449 0.731029 0.029589
0.598268 0.730784 0.032875
0.635189 0.730632 0.036110
0.670343 0.730562 0.039293
0.703852 0.730564 0.042422
0.735825 0.730630 0.045497
0.766364 0.730754 0.048517
0.795561 0.730928 0.051481
0.823499 0.731148 0.054389
0.850258 0.731407 0.057243
0.875909 0.731701 0.060041
0.900517 0.732026 0.062785
0.924145 0.732379 0.065475
0.946847 0.732756 0.068112
0.968676 0.733154 0.070696
0.989533 0.733422 0.073081
0.002821 0.772396 0.000000
0.028401 0.771572 0.000900
0.054718 0.770752 0.002336
0.081801 0.769939 0.003857
0.109685 0.769135 0.005470
0.138404 0.768343 0.007180
0.167995 0.767565 0.008996
0.198497 0.766804 0.010925
0.229951 0.766065 0.012978
0.262401 0.765351 0.015162
0.295893 0.764667 0.017491
0.330475 0.764017 0.019975
0.366200 0.763409 0.022628
0.403121 0.762848 0.025465
0.441298 0.762343 0.028502
0.480790 0.761901 0.031757
0.521664 0.761534 0.035251
0.562184 0.761262 0.038843
0.600673 0.761090 0.042377
0.637277 0.761008 0.045850
0.672127 0.761005 0.049261
0.705344 0.761072 0.052609
0.737037 0.761201 0.055895
0.767306 0.761384 0.059117
0.796243 0.761616 0.062276
0.823931 0.761891 0.065373
0.850449 0.762203 0.068407
0.875866 0.762549 0.071380
0.900250 0.762924 0.074293
0.923660 0.763325 0.077146
0.946152 0.763748 0.079940
0.967779 0.764191 0.082677
0.988393 0.764457 0.085164
0.010410 0.800295 0.005831
0.035801 0.799512 0.007330
0.061922 0.798736 0.008913
0.088804 0.797968 0.010586
0.116478 0.797210 0.012356
0.144981 0.796466 0.014229
0.174348 0.795737 0.016213
0.204617 0.795029 0.018317
0.235831 0.794343 0.020550
0.268030 0.793684 0.022922
0.301262 0.793057 0.025446
0.335574 0.792467 0.028133
0.371018 0.791921 0.030997
0.407647 0.791425 0.034053
0.445518 0.790987 0.037319
0.484693 0.790616 0.040813
0.525235 0.790322 0.044556
0.565423 0.790124 0.048397
0.603595 0.790023 0.052169
0.639894 0.790008 0.055871
0.674452 0.790070 0.059502
0.707388 0.790199 0.063061
0.738810 0.790388 0.066549
0.768819 0.790629 0.069967
0.797506 0.790916 0.073314
0.824953 0.791244 0.076591
0.851238 0.791608 0.079800
0.876432 0.792003 0.082941
0.900599 0.792426 0.086016
0.923800 0.792873 0.089026
0.946090 0.793342 0.091973
0.967522 0.793828 0.094856
0.987897 0.794085 0.097435
0.018285 0.826946 0.012487
0.043494 0.826204 0.014123
0.069426 0.825469 0.015848
0.096113 0.824744 0.017667
0.123586 0.824031 0.019587
0.151880 0.823333 0.021617
0.181031 0.822653 0.023763
0.211077 0.821993 0.026035
0.242058 0.821359 0.028443
0.274017 0.820753 0.030996
0.306998 0.820182 0.033708
0.341050 0.819650 0.036590
0.376223 0.819164 0.039657
0.412570 0.818730 0.042925
0.450148 0.818357 0.046412
0.489017 0.818054 0.050135
0.529239 0.817831 0.054118
0.569107 0.817703 0.058199
0.606973 0.817670 0.062201
0.642978 0.817721 0.066123
0.677254 0.817845 0.069966
0.709919 0.818034 0.073729
0.741082 0.818280 0.077412
0.770841 0.818576 0.081017
0.799286 0.818917 0.084545
0.826501 0.819296 0.087997
0.852562 0.819710 0.091374
0.877540 0.820153 0.094678
0.901499 0.820622 0.097909
0.924498 0.821114 0.101070
0.946594 0.821625 0.104163
0.967837 0.822153 0.107188
0.987977 0.822398 0.109850
0.026400 0.852429 0.019460
0.051433 0.851726 0.021228
0.077184 0.851031 0.023089
0.103683 0.850348 0.025049
0.130962 0.849678 0.027115
0.159055 0.849024 0.029295
0.187998 0.848390 0.031598
0.217828 0.847778 0.034032
0.248585 0.847193 0.036607
0.280311 0.846640 0.039336
0.313051 0.846122 0.042228
0.346852 0.845645 0.045299
0.381764 0.845217 0.048562
0.417840 0.844843 0.052034
0.455135 0.844533 0.055733
0.493708 0.844295 0.059678
0.533622 0.844141 0.063893
0.573182 0.844081 0.068205
0.610752 0.844113 0.072428
0.646475 0.844226 0.076563
0.680479 0.844411 0.080610
0.712883 0.844658 0.084568
0.743795 0.844959 0.088440
0.773312 0.845309 0.092227
0.801525 0.845701 0.095929
0.828517 0.846130 0.099549
0.854362 0.846592 0.103088
